X:1
T:Title
%%score { ( 1 3 ) | ( 2 4 ) }
L:1/8
M:6/8
K:Ab
V:1 treble nm="Grand Piano"
V:3 treble 
V:2 bass 
V:4 bass 
V:1
 z3 z2[Q:1/4=100] [CE] | [CE]2 [CE] [CF]2 [CG] | [G,DF]3 [G,DE]2 [G,DE] | %3
 [A,E]2 [A,EA] [EB]2 [Ec] | c3 z3 | G2 G G2 d | F3 G2 G | [DF]2 [CE] [EA]2 B | c3- c2 [CE] | %9
 [CE]2 [CE] [CF]2 [CG] | [G,DF]3 [G,DE]2 [G,DE] | [A,E]2 [A,EA] [EB]2 [Ec] | [Fc]3 F2- [FB] | %13
 [B,=DB]2 [B,DF] [B,EG]2 [DFA] | [EAc]3 [EGB]2 [B,EG] | [B,=DB]2 [B,FA] [B,EG]2 [A,DF] | %16
[M:5/8] E-E- E3 |[M:1/8] E |[M:3/4] [Ec]2 [CE] [Ec]2 [CE] | [Ec]3 [Ec]2 [Ec] | [Ed]2 E d2 E | d6 | %22
 d2 cB AB | [Ec]3 [Ec]2 [Ec] | B2 z .G3 | B6 | [Ec]2 [CE] [Ec]2 [CE] | [Ec]3 [Ec]2 [Ec] | %28
 [Ed]2 E d2 E | d6 | d2 [EG] [EA]2 [EB] |[M:7/8] [Ec]3 [Ee]3 [Fd] |[M:3/4] c2 E B2 B | %33
[M:5/8] [CA]-[CA]- [CA]3 |] %34
V:2
 z3 z2 [A,,A,] | [A,,A,]2 [A,,A,] [A,,A,]2 [A,,A,] | B,,3 B,,2 B,, | C,2 C, [C,A,]2 [C,A,] | %4
 A,3 z2 [=D,B,] | [E,B,E]2 [E,B,E] [E,B,E]2 [E,G,E] | [E,G,D]3 [E,B,D]2 [E,B,D] | %7
 [A,,A,]2 [A,,A,] [C,A,]2 [E,G,E] | [A,E]3- [A,E]2 [A,,A,] | [A,,A,]2 [A,,A,] [A,,A,]2 [A,,A,] | %10
 B,,3 B,,2 B,, | C,2 C, [C,A,]2 [C,A,] | [D,A,]3 z2 B, | B,,2 B,, B,,2 B,, | E,3 E,2 E, | %15
 B,,2 B,, B,,2 B,, |[M:5/8] z2 A, B,2 |[M:1/8] [E,G,] |[M:3/4] [A,,A,]2 [A,,A,] [A,,A,]2 [A,,A,] | %19
 [A,,A,]3 [A,,A,]2 [A,,A,] | [E,G,]3 .[E,G,E]3 | [E,G,E]2 [E,G,] [E,G,]2 [E,G,E] | %22
 [E,B,E]2 [E,A,E][G,D] [A,C][E,G,D] | [A,,A,]3 [A,,A,]2 [A,,A,] | z2 F B,,3 | %25
 [E,G,D]2 [E,G,] [E,G,]2 [E,G,] | [A,,A,]2 [A,,A,] [A,,A,]2 [A,,A,] | [A,,A,]3 [A,,A,]2 [A,,A,] | %28
 [E,G,]3 .[E,G,E]3 | [E,G,E]2 [E,G,] [E,G,]2 [E,G,E] | [E,B,E]2 [D,B,] [C,A,]2 [B,,G,] | %31
[M:7/8] [A,,A,]3 [C,A,]3 [D,A,] |[M:3/4] [E,A,E]2 [E,A,C] [E,G,D]2 [E,G,D] | %33
[M:5/8] [A,,A,]-[A,,A,]- [A,,A,]3 |] %34
V:3
 x6 | x6 | x6 | x6 | F3- [B,FB]2 [FA] | x6 | x6 | x6 | x6 | x6 | x6 | x6 | z3 .[B,B]3 | x6 | x6 | %15
 x6 |[M:5/8] G,2 C D2 |[M:1/8] x |[M:3/4] x6 | x6 | x6 | z2 E E2 d | x6 | x6 | =D3 [B,D]2- [B,DA] | %25
 z2 D D2 E | x6 | x6 | x6 | z2 E E2 d | x6 |[M:7/8] x7 |[M:3/4] x6 |[M:5/8] x5 |] %34
V:4
 x6 | x6 | x6 | x6 | D,6 | x6 | x6 | x6 | x6 | x6 | x6 | x6 | z3 D,3 | x6 | x6 | x6 | %16
[M:5/8] E,-E,- E,3 |[M:1/8] x |[M:3/4] x6 | x6 | x6 | x6 | z2 z .E,3 | x6 | [B,,A,]4 z2 | x6 | x6 | %27
 x6 | x6 | x6 | x6 |[M:7/8] x7 |[M:3/4] x6 |[M:5/8] x5 |] %34

